!!! OTL: Berkowitz562
!!! Chapter: 1
!!! Section: V
!!! Page: 142
!!! Mode: 
!!! Encoder: DJB
**kern
*staff1
*I"Piano
=1-
*clefF4
*k[]
*C:
*M3/4
4F\
4G\
4A\
=2
4A-\
4B-\
4c\
=3
4B-\
4Bn\
4c#\
=4
4c\
4G\
4D\
=5
4D-\
4E-\
4F\
=6
4E\
4F#\
4G#\
=7
2B-\
4e-\
=8
2.d-\
=9
4d\
4c\
4B-\
=10
4B\
4A\
4G\
=11
4F\
4B-\
4A-\
=12
!!linebreak:original
4A\
4E\
4BB/
=13
4BB-/
4C/
4D\
=14
4E\
4F#\
4G#\
=15
4A#\
4r
4A#\
=16
4d\
2r
==
*-
